images/logos/argos-w.svg

<svg fill="none" height="109" viewBox="0 0 162 109" width="162" xmlns="http://www.w3.org/2000/svg"><path d="m18.8823 90.7008c-1.544-1.0025-.6617-2.528 1.0146-1.8742 23.0721 9.3709 38.0271 12.8144 59.0699 12.8144 21.0432 0 35.9982-3.4435 59.0702-12.8144 1.676-.6538 2.558.9153 1.014 1.8742-9.043 5.7969-30.174 17.4782-60.0842 17.4782-29.9099 0-50.9968-11.6813-60.0845-17.4782zm62.737-34.3777c3.4582 0 5.4534 2.0042 5.8967 2.895.0887.1782.1774.1782.2217-.0445.133-.5345.2217-.7572.266-.9799.2661-.8908.8868-1.4252 1.9509-1.4698.4877-.035 1.7965-.0425 2.6576-.0441l.579-.0004c.931 0 1.6404.8017 1.3744 2.0042-1.1528 4.9884-2.8819 11.9809-4.744 19.3744-2.3499 9.3531-7.2713 14.2078-14.2765 14.2078-2.8375 0-7.6702-.8462-9.7541-4.2312-.399-.668-.6207-1.4252.4877-2.1824.9311-.6235 2.0839-1.0689 3.0593-1.3361.8867-.2227 1.1971-.1782 2.1725.4008.6207.4009 1.8621 1.1135 3.5912 1.1135 2.6159 0 5.9855-1.5143 7.5816-7.0371.0444-.1782-.0886-.2672-.2217-.0891-1.197 1.5143-3.5912 2.4496-6.3401 2.4051-3.2809-.0445-5.4091-1.3362-6.7392-3.3404-1.4631-2.2269-1.3744-6.3245-.2217-9.8876 1.8178-5.6564 6.1628-11.7582 12.4587-11.7582zm27.8377.1763c7.81 0 11.38 5.0958 9.773 12.5401-1.562 7.4443-7.319 12.54-15.128 12.54-7.7654 0-11.3355-5.0957-9.7736-12.54 1.6066-7.4443 7.3636-12.5401 15.1286-12.5401zm23.84-.7206c3.763 0 7.089 1.6395 8.445 4.1209.525.9749.35 1.5066-.569 2.0826-.437.3102-1.794.9306-2.625 1.2408-.788.3101-1.488.2215-2.144-.5761-2.67-3.1461-6.564-2.0383-6.695-.3102-.132 1.6395 1.663 2.2156 4.069 2.9246 3.676 1.0634 7.745 2.9245 6.52 7.976-1.225 5.1401-6.213 7.6658-11.946 7.6658-3.632 0-7.833-1.1964-9.408-5.0072-.306-.7532-.087-1.3736.482-1.7724.962-.6647 1.969-1.1964 2.888-1.4623.787-.2658 1.4-.0886 1.925.5761 1.138 1.5066 2.45 2.3485 4.507 2.3485 1.969 0 3.938-.9306 3.851-2.6587-.044-1.5952-2.538-2.2156-3.763-2.5257-2.495-.6204-7.352-1.7725-7.352-5.7605 0-5.0071 4.682-8.7736 11.815-8.8622zm-72.0372 1.0867c.7427 0 1.1358.5755.9611 1.2395-.1311.5755-.2621 1.0625-.3058 1.2838-.0437.1328.0874.1329.1311.0886 2.7958-2.6119 6.5527-2.6119 10.4843-2.6119.699 0 .9611.6641.5242 1.0625-1.3542 1.2838-2.2279 2.4348-3.189 3.9842-.6115.8853-1.0484 1.2395-2.1842 1.2838-2.5337.1328-3.8006.6197-4.718 1.328-.961.7526-1.9658 2.7004-2.4463 5.1795-.3058 1.6822-1.2669 6.5075-2.0095 10.0933-.1311.7083-.5679 1.1067-1.3979 1.1067h-4.6743c-.5242 0-1.0484-.487-.9174-1.1067.8737-4.5155 3.888-19.5668 4.3248-21.5589.2184-.974.699-1.3281 1.5727-1.3281 1.4416-.0443 2.6647-.0443 3.8442-.0443zm-14.8045-10.4203c1.4205 0 2.042.5342 2.1308 1.7807.3995 5.075 1.5093 26.7107 1.6425 31.1179.042 1.0122-.5932 1.3852-1.3019 1.4216l-.1187.003h-4.5279c-1.1098 0-1.5982-.5342-1.6425-1.38-.0431-1.5109-.1696-5.5335-.1772-5.7759l-.0004-.0114h-12.2966c-1.3318 2.2704-2.8411 4.9414-3.4626 6.0099-.541.9181-1.082 1.132-1.8425 1.1552l-.1551.0022h-5.1495c-1.0654 0-1.4205-.8458-.9322-1.7362 7.0139-12.5095 15.8923-26.2655 19.7544-30.8508 1.1986-1.4246 2.486-1.5582 4.0397-1.6472 1.1098-.089 2.6635-.1335 4.0397-.089zm62.5997 15.2386c-4.373 0-6.203 3.5449-7.274 7.3114-1.16 3.8107-1.562 7.3113 2.812 7.3113 4.328 0 6.203-3.5449 7.318-7.3113 1.072-3.7665 1.518-7.3114-2.856-7.3114zm-33.7316 7.1547c-.7537 2.5832-.9754 6.5471 2.4386 6.8589 3.3252.2673 5.4534-2.2269 6.8278-6.9035.8867-3.0731 1.7292-7.0816-2.3498-7.2153-3.1923-.089-5.5421 2.4051-6.9166 7.2599zm-33.6625-14.6472c-2.6801 3.541-6.2165 9.0036-8.3819 12.9791l-.2745.5098h9.4999s-.3995-9.3933-.5327-13.4444c0 0-.0888-.4452-.3108-.0445zm91.7121-47.58132c.318 0 .477.10393.583.41573l4.234 10.91289 4.075-10.91289c.053-.25984.264-.41573.529-.41573h1.746c.159 0 .318.15589.318.36376 0 .1559-.106.25983-.159.4677l-7.097 17.98036c-.99 2.4944-3.784 4.547-6.774 4.547l.01.0312c-.476 0-.952 0-1.608-.1559-.503-.1039-.778-.4157-.778-.7795v-2.1878c0-.2598.232-.5196.508-.5196.423 0 .741.1039 1.185.2078.741.1559 1.429.2599 2.064.2599 2.17 0 3.758-1.0913 3.811-3.2219l-7.039-16.00567c-.159-.41573-.212-.51966-.212-.62359 0-.25983.159-.36376.371-.36376zm22.244-.20267c1.641 0 3.366.31179 4.922.98736.477.20786.582.57163.582.98736v1.29915c0 .51962-.227.67552-.635.67552-.174 0-.492-.1559-.719-.3118-1.376-.93535-3.25-1.45501-4.806-1.45501-1.588 0-2.858.57163-2.858 1.81881 0 3.0141 9.897 1.6629 9.897 7.691 0 4.5731-3.387 6.184-6.944 6.184l.011-.1611c-1.884 0-3.8-.4469-5.292-1.1121-.456-.2078-.567-.5456-.567-.9665v-1.4863c0-.5352.238-.6911.619-.6911.286 0 .53.1559.741.3118 1.572 1.1952 3.419 1.7668 4.922 1.7668h.022c1.704 0 3.016-.7275 3.016-2.1306 0-3.2739-9.791-2.0267-9.791-8.0548 0-3.68957 3.229-5.35249 6.88-5.35249zm-147.66254-6.106042c2.56684 0 4.89544.483287 6.20794.987362.3546.1559.4234.33258.4234.68595v2.20857c0 .33778-.1058.60281-.5292.60281-.344 0-.6192-.20787-1.0479-.51966-1.5507-1.0913-3.03255-1.76686-4.97486-1.76686-2.16987 0-3.87402 1.14326-3.87402 2.91011 0 4.36517 12.29418 3.89747 12.29418 10.91295 0 5.3005-4.4985 7.7949-9.42042 7.7949l.0053.0936c-2.1593 0-4.40327-.4677-6.393209-1.4031-.386344-.2599-.460437-.4158-.460437-.7795v-1.9072c0-.3482.121724-.6911.777981-.6911.349295 0 .582165.1818 1.079645.5352 1.99523 1.3667 3.8952 1.9228 5.50409 1.9228 2.70965 0 4.55145-1.611 4.55145-3.6065.0212-5.2122-12.0984-3.6169-12.0984-11.30786 0-3.55969 2.79438-6.672472 7.95446-6.672472zm74.87674.005197c.2646 0 .4763.197472.4763.467697v7.576688c.7409-.6236 2.4345-1.94354 5.0807-1.94354 4.0222 0 6.5625 3.42977 6.5625 8.00279 0 5.8722-4.128 9.7697-9.2616 9.7697l-.1059-.0364c-2.752 0-4.8161-.951-6.1921-1.9747-.5821-.4158-.688-1.1433-.688-1.7669v-19.627638c0-.270225.2117-.467697.3705-.467697zm-12.8552 6.028085c1.6406 0 3.3342.33259 4.9219.97177.4763.19228.5821.57163.5821.98736v1.26278c0 .53004-.2117.68594-.5821.68594-.1588 0-.4763-.1559-.741-.31178-1.376-.93539-3.2283-1.45506-4.816-1.45506-1.5878 0-2.8579.57163-2.8579 1.81884 0 3.014 9.9497 1.6109 9.9497 7.639 0 4.5731-3.3872 6.1321-6.9331 6.1321l-.1323.0831c-1.8523 0-3.7893-.4417-5.2924-1.1069-.4445-.2234-.5557-.556-.5557-.977v-1.4966c0-.5352.2647-.6911.6351-.6911.2646 0 .5293.1195.741.3118 1.5877 1.1796 3.44 1.7512 4.9219 1.7512 1.7465 0 3.0166-.7275 3.0166-2.1306 0-3.2739-9.7379-2.0267-9.7379-8.0859 0-3.71044 3.2283-5.38895 6.8801-5.38895zm-43.5617-.16629c5.5041 0 7.1447 2.13062 7.1447 5.22264v11.8587c0 .2598-.1587.4469-.4763.4469h-3.5459c-.1588 0-.3704-.1819-.3704-.4469l-.1059-.9874c-1.2172 1.0601-2.6991 1.8188-4.4985 1.8188l-.1112-.0104c-3.2654 0-6.0545-1.8084-6.0545-5.2485 0-4.1574 4.6997-5.0668 6.7531-5.337 3.3766-.4157 3.6835-.6444 3.6835-1.5226 0-1.8604-.3387-3.37781-2.715-3.37781-1.5983 0-2.8737.45211-4.0963 1.16925l-.6351.41576c-.2117.1559-.5821.5716-1.0055.5716-.2117 0-.6351-.2183-.6351-.76391v-1.70449c0-.35337.1588-.68596.5822-.925 1.5877-.75871 3.9693-1.17964 6.0862-1.17964zm85.4087.38975c.264 0 .476.20786.476.4677v10.70509c0 4.7289-3.916 6.3191-7.78 6.3191l.053.0052c-3.863 0-7.7266-1.559-7.7266-5.8722v-11.10523c0-.25983.1588-.46769.3705-.46769h3.7571c.265 0 .477.20786.477.46769v12.00423c0 1.7876 1.164 2.8945 3.122 2.8945 2.382 0 3.176-1.3199 3.176-3.7935v-11.15719c0-.25984.158-.4677.37-.4677zm-56.5863-.35337c3.7576 0 5.3982 2.13062 5.3982 5.24856v11.812c0 .2598-.1588.4677-.4763.4677l-.1482-.0052h-3.7576c-.2117 0-.3705-.1975-.3705-.4677v-11.4326c0-1.2992-.2117-2.82698-2.752-2.82698-1.3231 0-2.9108.75352-3.6518 1.16928v13.0955c0 .2598-.1587.4677-.4763.4677h-3.7046c-.1747 0-.3705-.2079-.3705-.4677v-16.21351c0-.28062.2117-.4677.5081-.4677h3.7046c.2646 0 .4869.18708.4869.4677v.86784c1.0585-.69635 3.4401-1.71489 5.61-1.71489zm-14.4906.34817c.2646 0 .4763.20787.4763.4677v16.21869c0 .2754-.2117.4521-.4763.4521l.1058-.0935h-3.7576c-.2116 0-.4233-.2079-.4233-.4677v-16.10959c0-.25983.2117-.4677.3704-.4677zm86.1019-.20786c.529.10393.794.41573.794.77949v2.39045c0 .25983-.244.51971-.529.51971-.424 0-.794-.15595-1.297-.31184-.503-.10394-1.085-.1559-1.667-.1559-1.8 0-3.599.67554-3.599 3.11794v10.2894c0 .2598-.185.4677-.45.4677l-.058.1559h-3.705c-.185 0-.37-.2079-.37-.4677v-16.10959c0-.25983.185-.4677.37-.4677h3.599c.291 0 .476.20787.476.4677l.08 2.02668c.021 0 .026 0 .032-.05196.74-1.09129 2.487-2.80618 4.63-2.80618.514 0 .953 0 1.694.1559zm-40.6244 2.97247c-1.429 0-2.4345.77948-3.0167 1.19518v10.2894l.0477-.052c0 .3638.0952.7275.5292.9874.3705.2598.9526.4157 2.1169.4157 2.4716 0 4.2234-2.4944 4.2234-6.7556 0-1.559-.3705-6.08008-3.9005-6.08008zm-57.216 5.62798h-.0529c-4.2869 0-5.9275 1.8967-5.9275 3.9598 0 1.4343.7938 2.8945 2.8579 2.8945 1.7994 0 3.1225-1.3303 3.1225-1.8344zm120.8094-14.451856c1.058 1.995506-.371 5.274576-3.001 5.664326l.011.03118c-.9.25983.899-1.87079.608-3.01405-.317-1.09129-1.603-2.59831-.688-2.941288.9-.348174 2.594-.342977 3.07.259832zm-110.8491-.374158c1.6406 0 2.4503 1.039324 2.4503 2.182584 0 1.40309-.9261 2.28652-2.4503 2.28652v-.04158c-1.5137 0-2.5245-.90941-2.5245-2.28651 0-1.14326.815-2.141014 2.5245-2.141014z" fill="#fff"/></svg>

<svg width="162" height="109" viewBox="0 0 162 109" fill="none" xmlns="http://www.w3.org/2000/svg">
<path d="M18.8823 90.7008C17.3383 89.6983 18.2206 88.1728 19.8969 88.8266C42.969 98.1975 57.924 101.641 78.9668 101.641C100.01 101.641 114.965 98.1975 138.037 88.8266C139.713 88.1728 140.595 89.7419 139.051 90.7008C130.008 96.4977 108.877 108.179 78.9668 108.179C49.0569 108.179 27.97 96.4977 18.8823 90.7008ZM81.6193 56.3231C85.0775 56.3231 87.0727 58.3273 87.516 59.2181C87.6047 59.3963 87.6934 59.3963 87.7377 59.1736C87.8707 58.6391 87.9594 58.4164 88.0037 58.1937C88.2698 57.3029 88.8905 56.7685 89.9546 56.7239C90.4423 56.6889 91.7511 56.6814 92.6122 56.6798L93.1912 56.6794C94.1222 56.6794 94.8316 57.4811 94.5656 58.6836C93.4128 63.672 91.6837 70.6645 89.8216 78.058C87.4717 87.4111 82.5503 92.2658 75.5451 92.2658C72.7076 92.2658 67.8749 91.4196 65.791 88.0346C65.392 87.3666 65.1703 86.6094 66.2787 85.8522C67.2098 85.2287 68.3626 84.7833 69.338 84.5161C70.2247 84.2934 70.5351 84.3379 71.5105 84.9169C72.1312 85.3178 73.3726 86.0304 75.1017 86.0304C77.7176 86.0304 81.0872 84.5161 82.6833 78.9933C82.7277 78.8151 82.5947 78.7261 82.4616 78.9042C81.2646 80.4185 78.8704 81.3538 76.1215 81.3093C72.8406 81.2648 70.7124 79.9731 69.3823 77.9689C67.9192 75.742 68.0079 71.6444 69.1606 68.0813C70.9784 62.4249 75.3234 56.3231 81.6193 56.3231ZM109.457 56.4994C117.267 56.4994 120.837 61.5952 119.23 69.0395C117.668 76.4838 111.911 81.5795 104.102 81.5795C96.3366 81.5795 92.7665 76.4838 94.3284 69.0395C95.935 61.5952 101.692 56.4994 109.457 56.4994ZM133.297 55.7788C137.06 55.7788 140.386 57.4183 141.742 59.8997C142.267 60.8746 142.092 61.4063 141.173 61.9823C140.736 62.2925 139.379 62.9129 138.548 63.2231C137.76 63.5332 137.06 63.4446 136.404 62.647C133.734 59.5009 129.84 60.6087 129.709 62.3368C129.577 63.9763 131.372 64.5524 133.778 65.2614C137.454 66.3248 141.523 68.1859 140.298 73.2374C139.073 78.3775 134.085 80.9032 128.352 80.9032C124.72 80.9032 120.519 79.7068 118.944 75.896C118.638 75.1428 118.857 74.5224 119.426 74.1236C120.388 73.4589 121.395 72.9272 122.314 72.6613C123.101 72.3955 123.714 72.5727 124.239 73.2374C125.377 74.744 126.689 75.5859 128.746 75.5859C130.715 75.5859 132.684 74.6553 132.597 72.9272C132.553 71.332 130.059 70.7116 128.834 70.4015C126.339 69.7811 121.482 68.629 121.482 64.641C121.482 59.6339 126.164 55.8674 133.297 55.7788ZM61.2598 56.8655C62.0025 56.8655 62.3956 57.441 62.2209 58.105C62.0898 58.6805 61.9588 59.1675 61.9151 59.3888C61.8714 59.5216 62.0025 59.5217 62.0462 59.4774C64.842 56.8655 68.5989 56.8655 72.5305 56.8655C73.2295 56.8655 73.4916 57.5296 73.0547 57.928C71.7005 59.2118 70.8268 60.3628 69.8657 61.9122C69.2542 62.7975 68.8173 63.1517 67.6815 63.196C65.1478 63.3288 63.8809 63.8157 62.9635 64.524C62.0025 65.2766 60.9977 67.2244 60.5172 69.7035C60.2114 71.3857 59.2503 76.211 58.5077 79.7968C58.3766 80.5051 57.9398 80.9035 57.1098 80.9035H52.4355C51.9113 80.9035 51.3871 80.4165 51.5181 79.7968C52.3918 75.2813 55.4061 60.23 55.8429 58.2379C56.0613 57.2639 56.5419 56.9098 57.4156 56.9098C58.8572 56.8655 60.0803 56.8655 61.2598 56.8655ZM46.4553 46.4452C47.8758 46.4452 48.4973 46.9794 48.5861 48.2259C48.9856 53.3009 50.0954 74.9366 50.2286 79.3438C50.2706 80.356 49.6354 80.729 48.9267 80.7654L48.808 80.7684H44.2801C43.1703 80.7684 42.6819 80.2342 42.6376 79.3884C42.5945 77.8775 42.468 73.8549 42.4604 73.6125L42.46 73.6011H30.1634C28.8316 75.8715 27.3223 78.5425 26.7008 79.611C26.1598 80.5291 25.6188 80.743 24.8583 80.7662L24.7032 80.7684H19.5537C18.4883 80.7684 18.1332 79.9226 18.6215 79.0322C25.6354 66.5227 34.5138 52.7667 38.3759 48.1814C39.5745 46.7568 40.8619 46.6232 42.4156 46.5342C43.5254 46.4452 45.0791 46.4007 46.4553 46.4452ZM109.055 61.6838C104.682 61.6838 102.852 65.2287 101.781 68.9952C100.621 72.8059 100.219 76.3065 104.593 76.3065C108.921 76.3065 110.796 72.7616 111.911 68.9952C112.983 65.2287 113.429 61.6838 109.055 61.6838ZM75.3234 68.8385C74.5697 71.4217 74.348 75.3856 77.762 75.6974C81.0872 75.9647 83.2154 73.4705 84.5898 68.7939C85.4765 65.7208 86.319 61.7123 82.24 61.5786C79.0477 61.4896 76.6979 63.9837 75.3234 68.8385ZM41.6609 54.1913C38.9808 57.7323 35.4444 63.1949 33.279 67.1704L33.0045 67.6802H42.5044C42.5044 67.6802 42.1049 58.2869 41.9717 54.2358C41.9717 54.2358 41.8829 53.7906 41.6609 54.1913ZM133.373 6.60998C133.691 6.60998 133.85 6.71391 133.956 7.02571L138.19 17.9386L142.265 7.02571C142.318 6.76587 142.529 6.60998 142.794 6.60998H144.54C144.699 6.60998 144.858 6.76587 144.858 6.97374C144.858 7.12964 144.752 7.23357 144.699 7.44144L137.602 25.4218C136.612 27.9162 133.818 29.9688 130.828 29.9688L130.838 30C130.362 30 129.886 30 129.23 29.8441C128.727 29.7402 128.452 29.4284 128.452 29.0646V26.8768C128.452 26.617 128.684 26.3572 128.96 26.3572C129.383 26.3572 129.701 26.4611 130.145 26.565C130.886 26.7209 131.574 26.8249 132.209 26.8249C134.379 26.8249 135.967 25.7336 136.02 23.603L128.981 7.59733C128.822 7.1816 128.769 7.07767 128.769 6.97374C128.769 6.71391 128.928 6.60998 129.14 6.60998H133.373ZM155.617 6.40731C157.258 6.40731 158.983 6.7191 160.539 7.39467C161.016 7.60253 161.121 7.9663 161.121 8.38203V9.68118C161.121 10.2008 160.894 10.3567 160.486 10.3567C160.312 10.3567 159.994 10.2008 159.767 10.0449C158.391 9.10955 156.517 8.58989 154.961 8.58989C153.373 8.58989 152.103 9.16152 152.103 10.4087C152.103 13.4228 162 12.0716 162 18.0997C162 22.6728 158.613 24.2837 155.056 24.2837L155.067 24.1226C153.183 24.1226 151.267 23.6757 149.775 23.0105C149.319 22.8027 149.208 22.4649 149.208 22.044V20.5577C149.208 20.0225 149.446 19.8666 149.827 19.8666C150.113 19.8666 150.357 20.0225 150.568 20.1784C152.14 21.3736 153.987 21.9452 155.49 21.9452H155.512C157.216 21.9452 158.528 21.2177 158.528 19.8146C158.528 16.5407 148.737 17.7879 148.737 11.7598C148.737 8.07023 151.966 6.40731 155.617 6.40731ZM7.95446 0.301268C10.5213 0.301268 12.8499 0.784555 14.1624 1.28863C14.517 1.44453 14.5858 1.62121 14.5858 1.97458V4.18315C14.5858 4.52093 14.48 4.78596 14.0566 4.78596C13.7126 4.78596 13.4374 4.57809 13.0087 4.2663C11.458 3.175 9.97615 2.49944 8.03384 2.49944C5.86397 2.49944 4.15982 3.6427 4.15982 5.40955C4.15982 9.77472 16.454 9.30702 16.454 16.3225C16.454 21.623 11.9555 24.1174 7.03358 24.1174L7.03888 24.211C4.87958 24.211 2.63561 23.7433 0.645671 22.8079C0.259327 22.548 0.185234 22.3921 0.185234 22.0284V20.1212C0.185234 19.773 0.306958 19.4301 0.963215 19.4301C1.31251 19.4301 1.54538 19.6119 2.04286 19.9653C4.03809 21.332 5.93806 21.8881 7.54695 21.8881C10.2566 21.8881 12.0984 20.2771 12.0984 18.2816C12.1196 13.0694 0 14.6647 0 6.97374C0 3.41405 2.79438 0.301268 7.95446 0.301268ZM82.8312 0.306465C83.0958 0.306465 83.3075 0.503937 83.3075 0.774162V8.35085C84.0484 7.72725 85.742 6.40731 88.3882 6.40731C92.4104 6.40731 94.9507 9.83708 94.9507 14.4101C94.9507 20.2823 90.8227 24.1798 85.6891 24.1798L85.5832 24.1434C82.8312 24.1434 80.7671 23.1924 79.3911 22.1687C78.809 21.7529 78.7031 21.0254 78.7031 20.4018V0.774162C78.7031 0.503937 78.9148 0.306465 79.0736 0.306465H82.8312ZM69.976 6.33455C71.6166 6.33455 73.3102 6.66714 74.8979 7.30632C75.3742 7.4986 75.48 7.87795 75.48 8.29368V9.55646C75.48 10.0865 75.2683 10.2424 74.8979 10.2424C74.7391 10.2424 74.4216 10.0865 74.1569 9.93062C72.7809 8.99523 70.9286 8.47556 69.3409 8.47556C67.7531 8.47556 66.483 9.04719 66.483 10.2944C66.483 13.3084 76.4327 11.9053 76.4327 17.9334C76.4327 22.5065 73.0455 24.0655 69.4996 24.0655L69.3673 24.1486C67.515 24.1486 65.578 23.7069 64.0749 23.0417C63.6304 22.8183 63.5192 22.4857 63.5192 22.0647V20.5681C63.5192 20.0329 63.7839 19.877 64.1543 19.877C64.4189 19.877 64.6836 19.9965 64.8953 20.1888C66.483 21.3684 68.3353 21.94 69.8172 21.94C71.5637 21.94 72.8338 21.2125 72.8338 19.8094C72.8338 16.5355 63.0959 17.7827 63.0959 11.7235C63.0959 8.01306 66.3242 6.33455 69.976 6.33455ZM26.4143 6.16826C31.9184 6.16826 33.559 8.29888 33.559 11.3909V23.2496C33.559 23.5094 33.4003 23.6965 33.0827 23.6965H29.5368C29.378 23.6965 29.1664 23.5146 29.1664 23.2496L29.0605 22.2622C27.8433 23.3223 26.3614 24.081 24.562 24.081L24.4508 24.0706C21.1854 24.0706 18.3963 22.2622 18.3963 18.8221C18.3963 14.6647 23.096 13.7553 25.1494 13.4851C28.526 13.0694 28.8329 12.8407 28.8329 11.9625C28.8329 10.1021 28.4942 8.58469 26.1179 8.58469C24.5196 8.58469 23.2442 9.0368 22.0216 9.75394L21.3865 10.1697C21.1748 10.3256 20.8044 10.7413 20.381 10.7413C20.1693 10.7413 19.7459 10.523 19.7459 9.97739V8.2729C19.7459 7.91953 19.9047 7.58694 20.3281 7.3479C21.9158 6.58919 24.2974 6.16826 26.4143 6.16826ZM111.823 6.55801C112.087 6.55801 112.299 6.76587 112.299 7.02571V17.7308C112.299 22.4597 108.383 24.0499 104.519 24.0499L104.572 24.0551C100.709 24.0551 96.8454 22.4961 96.8454 18.1829V7.07767C96.8454 6.81784 97.0042 6.60998 97.2159 6.60998H100.973C101.238 6.60998 101.45 6.81784 101.45 7.07767V19.0819C101.45 20.8695 102.614 21.9764 104.572 21.9764C106.954 21.9764 107.748 20.6565 107.748 18.1829V7.02571C107.748 6.76587 107.906 6.55801 108.118 6.55801H111.823ZM55.2367 6.20464C58.9943 6.20464 60.6349 8.33526 60.6349 11.4532V23.2652C60.6349 23.525 60.4761 23.7329 60.1586 23.7329L60.0104 23.7277H56.2528C56.0411 23.7277 55.8823 23.5302 55.8823 23.26V11.8274C55.8823 10.5282 55.6706 9.00042 53.1303 9.00042C51.8072 9.00042 50.2195 9.75394 49.4785 10.1697V23.2652C49.4785 23.525 49.3198 23.7329 49.0022 23.7329H45.2976C45.1229 23.7329 44.9271 23.525 44.9271 23.2652V7.05169C44.9271 6.77107 45.1388 6.58399 45.4352 6.58399H49.1398C49.4044 6.58399 49.6267 6.77107 49.6267 7.05169V7.91953C50.6852 7.22318 53.0668 6.20464 55.2367 6.20464ZM40.7461 6.55281C41.0107 6.55281 41.2224 6.76068 41.2224 7.02051V23.2392C41.2224 23.5146 41.0107 23.6913 40.7461 23.6913L40.8519 23.5978H37.0943C36.8827 23.5978 36.671 23.3899 36.671 23.1301V7.02051C36.671 6.76068 36.8827 6.55281 37.0414 6.55281H40.7461ZM126.848 6.34495C127.377 6.44888 127.642 6.76068 127.642 7.12444V9.51489C127.642 9.77472 127.398 10.0346 127.113 10.0346C126.689 10.0346 126.319 9.87865 125.816 9.72276C125.313 9.61882 124.731 9.56686 124.149 9.56686C122.349 9.56686 120.55 10.2424 120.55 12.6848V22.9742C120.55 23.234 120.365 23.4419 120.1 23.4419L120.042 23.5978H116.337C116.152 23.5978 115.967 23.3899 115.967 23.1301V7.02051C115.967 6.76068 116.152 6.55281 116.337 6.55281H119.936C120.227 6.55281 120.412 6.76068 120.412 7.02051L120.492 9.04719C120.513 9.04719 120.518 9.04719 120.524 8.99523C121.264 7.90394 123.011 6.18905 125.154 6.18905C125.668 6.18905 126.107 6.18905 126.848 6.34495ZM86.2236 9.31742C84.7946 9.31742 83.7891 10.0969 83.2069 10.5126V20.802L83.2546 20.75C83.2546 21.1138 83.3498 21.4775 83.7838 21.7374C84.1543 21.9972 84.7364 22.1531 85.9007 22.1531C88.3723 22.1531 90.1241 19.6587 90.1241 15.3975C90.1241 13.8385 89.7536 9.31742 86.2236 9.31742ZM29.0076 14.9454H28.9547C24.6678 14.9454 23.0272 16.8421 23.0272 18.9052C23.0272 20.3395 23.821 21.7997 25.8851 21.7997C27.6845 21.7997 29.0076 20.4694 29.0076 19.9653V14.9454ZM149.817 0.493544C150.875 2.48905 149.446 5.76812 146.816 6.15787L146.827 6.18905C145.927 6.44888 147.726 4.31826 147.435 3.175C147.118 2.08371 145.832 0.57669 146.747 0.233712C147.647 -0.114462 149.341 -0.109265 149.817 0.493544ZM38.9679 0.119386C40.6085 0.119386 41.4182 1.15871 41.4182 2.30197C41.4182 3.70506 40.4921 4.58849 38.9679 4.58849V4.54691C37.4542 4.54691 36.4434 3.6375 36.4434 2.2604C36.4434 1.11714 37.2584 0.119386 38.9679 0.119386Z" fill="white"/>
</svg>
